X: 1008
T: Skotshne  [Dm]
S: From KCB: Dance Me to the End of Love
Z: 2010 Steve Rauch, reworked by John Chambers
M: 2/4
L: 1/16
K: D exp _^G
"A"\
|:"Dm"A,2D2 A,2D2 | "Dm"A,2D2 FED2 | "Dm"FED2 E2F2 | "Dm"G2 A6 |\
| "Dm"A,2D2 A,2D2 | "Dm"A,2D2 FED2 | "Dm"FED2 E2F2 | "Dm"E2 D6 :|
"B"\
|:"Dm"G2A2 B2c2 | "Dm"B2 A6 | "Dm"A2 G6 | "Dm"G2 F6 |\
| "Dm"cBA2 AGF2 | "A7"AGF2 FED^C | "Dm"D8- | D6 A2 ||
| "Dm"G2A2 B2c2 | "E"B2 e6 | "Dm"d2c2 B2A2 | "Dm"G2 F6 |\
| "Dm"cBA2 AGF2 | "A7"AGF2 FED^C | "Dm"D8- | D6 z2 :|
"C"\
|:"Dm"A2D2 E2F2 | "Dm"=G2F2 E2D2 | "Dm"F2E2 F2=G2 | "Dm"A6 B2 |\
| "Am"c2B2 A2^G2 | "Am" A2G2 A2B2 | "Am"c2B2 A2G2 | "Am"A6 A2 ||
| "Dm"G2A2 B2c2 | "E" B2 e6 | "Dm"d2c2 B2A2 | "Dm"G2 F6 |\
| "Dm"cBA2 AGF2 | "A7" AGF2 FED^C | "Dm"D8- |1 D2D2 E2F2 :|2 D6 z2 :|


%%sep 5 1 500

